public/avatar/item1/66.svg

<svg xmlns:xlink="http://www.w3.org/1999/xlink" height="65.4" width="80.15" xmlns="http://www.w3.org/2000/svg"><use height="13.15" transform="translate(38.8 40.35)" width="9.35" xlink:href="#a"/><defs><g id="a" fill-rule="evenodd"><path d="M14.7 29.1v.05h-.05l.05-.05m-.25 2.65.15.15-.05.25q-1.15 2.95-2.15 6-.3-.4-.65-.15v.05l-.3-.3 2.15-4.6-.3.7.95-1.8.2-.3M8 36.2l4.95-5.25.55.6-2.6 5.05-.55 1.2q-.8-.95-1.9-1.65l-.25-.1-.2.15m2.65 2.45.15-.15-.1.2-.05-.05m2.95-.4-.35-.2 1.6-6 .35-.15-.85 6.75-.4-.2.35.15.05-.05v-.05l-.6-.45q-.15 0-.15.15v.05" fill="#93c400" transform="translate(-7.2 -26.55)"/><path d="m11.85 31.95 4.05-4.35-.05.5-.1 1.35-.2 1.55-.05.65-.35 2.95-.3 2.25v.1l-.3 1.95v.1L13 38.35l-.3.8-1.4-1.1-.65 1.2-2.8-2.85.05.25-.15-.25v-.1l.05-.15.05.05.4-.4 3.6-3.85m2.85-2.85-.05.05h.05v-.05m-.25 2.65-.1-.1h-.05l-.7 1.5-2.15 4.6.3.3.75.65 2.05-6.55.05-.25-.15-.15m-.5 6.7.4.2.85-6.75-.35.15-1.6 6 .35.2.35.2m-6.2-2.15.1.1v-.1h-.1" fill="#405500" transform="translate(-7.2 -26.55)"/><path d="m15.15 34.6.35-2.95.05-.65.2-1.55.1-1.35.05-.5-4.05 4.35.4-1.05-.05.05-4.65 4.9.7-.05-.4.4-.05-.05-.05.15v.15l-.05.05-.45-.1-.05-.05v.05l.2-.55v-.05l8.55-9.25q.4.45.6 1.05l-1.4 12.1h-.05l-.2-.05v-.15l-.1.05v-.45l-.25-.1v-.1l.3-1.95.1 2.1.05-.1.45-5.5-.05.05-.25 1.1" fill="#765425" transform="translate(-7.2 -26.55)"/><path d="m13.6 33.15.7-1.5h.05l.1.1-.2.3-.95 1.8.3-.7m.95-1L12.5 38.7l-.75-.65V38q.35-.25.65.15 1-3.05 2.15-6m-1.05-.6-.55-.6L8 36.2l.2-.15.25.1q1.1.7 1.9 1.65l.55-1.2 2.6-5.05.5.15-3.1 6.65-.1.15.05-.05v-.05l.05-.05-.05.05v.05l-.05.05.1-.15L14 31.7l-.5-.15m-2.85 7.1-.45-.45-.05-.05L8.1 36.2l.35-.05-.35.05 2.05 1.95.05.05.45.45.05.05.1-.2-.15.15m2.95-.4v-.05q0-.15.15-.15l.6.45v.05l-.05.05-.35-.15-.35-.2M8 36.2l.45-.05-.45.05" fill="#c8ff20" transform="translate(-7.2 -26.55)"/><path d="m15.15 34.6.25-1.1.05-.05-.45 5.5-.05.1-.1-2.1v-.1l.3-2.25m-6.9 1.2-.7.05 4.65-4.9.05-.05-.4 1.05-3.6 3.85" fill="#a58343" transform="translate(-7.2 -26.55)"/></g></defs></svg>

<?xml version="1.0" encoding="UTF-8" standalone="no"?>
<svg xmlns:xlink="http://www.w3.org/1999/xlink" height="65.4px" width="80.15px" xmlns="http://www.w3.org/2000/svg">
  <g transform="matrix(1.0, 0.0, 0.0, 1.0, 31.6, 13.8)">
    <use height="13.15" transform="matrix(1.0, 0.0, 0.0, 1.0, 7.2, 26.55)" width="9.35" xlink:href="#shape0"/>
  </g>
  <defs>
    <g id="shape0" transform="matrix(1.0, 0.0, 0.0, 1.0, -7.2, -26.55)">
      <path d="M14.7 29.1 L14.7 29.15 14.65 29.15 14.7 29.1 M14.45 31.75 L14.6 31.9 14.55 32.15 Q13.4 35.1 12.4 38.15 12.1 37.75 11.75 38.0 L11.75 38.05 11.45 37.75 13.6 33.15 13.3 33.85 14.25 32.05 14.45 31.75 M8.0 36.2 L12.95 30.95 13.5 31.55 10.9 36.6 10.35 37.8 Q9.55 36.85 8.45 36.15 L8.2 36.05 8.0 36.2 M10.65 38.65 L10.8 38.5 10.7 38.7 10.65 38.65 M13.6 38.25 L13.25 38.05 14.85 32.05 15.2 31.9 14.35 38.65 13.95 38.45 14.3 38.6 14.35 38.55 14.35 38.5 13.75 38.05 Q13.6 38.05 13.6 38.2 L13.6 38.25" fill="#93c400" fill-rule="evenodd" stroke="none"/>
      <path d="M11.85 31.95 L15.9 27.6 15.85 28.1 15.75 29.45 15.55 31.0 15.5 31.65 15.15 34.6 14.85 36.85 14.85 36.95 14.55 38.9 14.55 39.0 13.0 38.35 12.7 39.15 11.3 38.05 10.65 39.25 7.85 36.4 7.9 36.65 7.75 36.4 7.75 36.3 7.8 36.15 7.85 36.2 8.25 35.8 11.85 31.95 M14.7 29.1 L14.65 29.15 14.7 29.15 14.7 29.1 M14.45 31.75 L14.35 31.65 14.3 31.65 13.6 33.15 11.45 37.75 11.75 38.05 12.5 38.7 14.55 32.15 14.6 31.9 14.45 31.75 M13.95 38.45 L14.35 38.65 15.2 31.9 14.85 32.05 13.25 38.05 13.6 38.25 13.95 38.45 M7.75 36.3 L7.85 36.4 7.85 36.3 7.75 36.3" fill="#405500" fill-rule="evenodd" stroke="none"/>
      <path d="M15.15 34.6 L15.5 31.65 15.55 31.0 15.75 29.45 15.85 28.1 15.9 27.6 11.85 31.95 12.25 30.9 12.2 30.95 7.55 35.85 8.25 35.8 7.85 36.2 7.8 36.15 7.75 36.3 7.75 36.4 7.75 36.45 7.7 36.5 7.25 36.4 7.2 36.35 7.2 36.4 7.4 35.85 7.4 35.8 15.95 26.55 Q16.35 27.0 16.55 27.6 L15.15 39.7 15.1 39.7 14.9 39.65 14.9 39.5 14.8 39.55 14.8 39.1 14.55 39.0 14.55 38.9 14.85 36.95 14.95 39.05 15.0 38.95 15.45 33.45 15.4 33.5 15.15 34.6" fill="#765425" fill-rule="evenodd" stroke="none"/>
      <path d="M13.6 33.15 L14.3 31.65 14.35 31.65 14.45 31.75 14.25 32.05 13.3 33.85 13.6 33.15 M14.55 32.15 L12.5 38.7 11.75 38.05 11.75 38.0 Q12.1 37.75 12.4 38.15 13.4 35.1 14.55 32.15 M13.5 31.55 L12.95 30.95 8.0 36.2 8.2 36.05 8.45 36.15 Q9.55 36.85 10.35 37.8 L10.9 36.6 13.5 31.55 14.0 31.7 10.9 38.35 10.8 38.5 10.85 38.45 10.85 38.4 10.9 38.35 10.85 38.4 10.85 38.45 10.8 38.5 10.9 38.35 14.0 31.7 13.5 31.55 M10.65 38.65 L10.2 38.2 10.15 38.15 8.1 36.2 8.45 36.15 8.1 36.2 10.15 38.15 10.2 38.2 10.65 38.65 10.7 38.7 10.8 38.5 10.65 38.65 M13.6 38.25 L13.6 38.2 Q13.6 38.05 13.75 38.05 L14.35 38.5 14.35 38.55 14.3 38.6 13.95 38.45 13.6 38.25 M8.0 36.2 L8.45 36.15 8.0 36.2" fill="#c8ff20" fill-rule="evenodd" stroke="none"/>
      <path d="M15.15 34.6 L15.4 33.5 15.45 33.45 15.0 38.95 14.95 39.05 14.85 36.95 14.85 36.85 15.15 34.6 M8.25 35.8 L7.55 35.85 12.2 30.95 12.25 30.9 11.85 31.95 8.25 35.8" fill="#a58343" fill-rule="evenodd" stroke="none"/>
    </g>
  </defs>
</svg>
